!!!!SEGMENT: pl-sa--176-a-v-6--006_anonim--msza-benedictus.krn
!!!cenid: 17xx:1617
!!!COM: Anonim
!!!COM-rismID: pe30004985
!!!CDT:
!!!CNT:
!!!OPR: Msza
!!!OTL: Benedictus
!!!OMV: 006
!!!PDT:
!!!AGN: Sacred; Mass
!!!SMS-siglum: PL-SA
!!!SMS-shelfmark: 176/A V 6
!!!SMS-shelfwork: 001-006 M
!!!SMS-variant:
!!!SMS-altvar:
!!!NIFC-rismSourceID: 1001035881
!!!NIFC-rismChildID: 1001035881
!!!NIFC-islandoraID: none
!!!URL-pdf-islandora:
!!!URL-scan: https://bc.bdsandomierz.pl/dlibra/publication/1510/edition/1478/content @EN{Scan in the Sandomierz Diocese Digital Library} @PL{Skany w portalu Cyfrowa Biblioteka Diecezjalna w Sandomierzu}
!!!IIIF:
!!!ONB-nifc: UWAGA: części Mszy: 1. Kyrie, 2. Et in terra, 3. Patrem, 4. Sanctus, 5. Osanna, 6. Benedictus, 7. Agnus Dei. Uwaga: błąd w sygnaturze w metadanych bc.bdsandomierz.pl
!!!AIN: 1 alto 1 bass 2 corno 1 organ 1 soprn 1 tenor 2 violn
!!!key: c
**kern	**fba	**kern	**kern	**kern	**dynam	**text	**kern	**kern	**kern	**kern	**kern
*	*	*group3	*group3	*group2	*	*	*group2	*group2	*group2	*group1	*group1
*part9	*part9	*part8	*part7	*part6	*part6	*part6	*part5	*part4	*part3	*part2	*part1
*staff9	*	*staff8	*staff7	*staff6	*	*staff6	*staff5	*staff4	*staff3	*staff2	*staff1
*IGcont	*	*IGacmp	*IGacmp	*IGsolo	*	*	*IGcoro	*IGcoro	*IGcoro	*IGacmp	*IGacmp
*ICklav	*	*ICstr	*ICstr	*ICvox	*	*	*ICvox	*ICvox	*ICvox	*ICww	*ICww
*Iorgan	*	*Ivioln	*Ivioln	*Ibass	*	*	*Itenor	*Ialto	*Isoprn	*Icorno	*Icorno
*I"ORG.ANO.	*	*I"Violino 2do	*I"Violino 1mo.	*I"Baſso.	*	*	*I"Tenore.	*I"Alto.	*I"Canto.	*I"Lituo 2do ex Dis ad Libitum	*I"Lituo 1mo ex Dis ad Libitum
*I'org	*	*I'vl 2	*I'vl 1	*I'B	*	*	*I'T	*I'A	*I'S	*I'lituus 2 in E|b	*I'lituus 1 in E|b
*clefF4	*	*clefG2	*clefG2	*clefF4	*	*	*clefC4	*clefC3	*clefC1	*clefG2	*clefG2
*	*	*	*	*	*	*	*	*	*	*ITrd-2c-3	*ITrd-2c-3
*k[a-b-e-a-3]	*	*k[a-b-e-]	*k[a-b-e-]	*k[a-b-e-]	*	*	*k[a-b-e-]	*k[a-b-e-]	*k[a-b-e-]	*k[b-e-a-]	*k[b-e-a-]
*c:	*	*c:	*c:	*c:	*	*	*c:	*c:	*c:	*c:	*c:
*M3/4	*	*M3/4	*M3/4	*M3/4	*	*	*M3/4	*M3/4	*M3/4	*M3/4	*M3/4
*	*	*2\right	*2\right	*2\right	*	*	*	*	*	*	*
=1	=1	=1	=1	=1	=1	=1	=1	=1	=1	=1	=1
!LO:TX:a:t=ſolo	!	!	!LO:TX:a:t=ſolo	!	!	!	!LO:TX:a:B:t=Benedictus Tacet	!	!	!	!
4C/	.	2.r	8g\L	0.r	.	.	2.ryy	0.r	0.r	0.r	0.r
.	.	.	8cc\	.	.	.	.	.	.	.	.
4rBB	.	.	8cc\	.	.	.	.	.	.	.	.
.	.	.	8cc\	.	.	.	.	.	.	.	.
4rBB	.	.	8cc\	.	.	.	.	.	.	.	.
.	.	.	8cc\J	.	.	.	.	.	.	.	.
=2	=2	=2	=2	=2	=2	=2	=2	=2	=2	=2	=2
!	!	!LO:TX:a:t=ſolo	!	!	!	!	!	!	!	!	!
2.r	.	8g\L	8bn\L	.	.	.	2.ryy	.	.	.	.
.	.	8cc\	8ee-\	.	.	.	.	.	.	.	.
.	.	8cc\	8ee-\	.	.	.	.	.	.	.	.
.	.	8cc\	8ee-\	.	.	.	.	.	.	.	.
.	.	8cc\	8ee-\	.	.	.	.	.	.	.	.
.	.	8cc\J	8ee-\J	.	.	.	.	.	.	.	.
=3	=3	=3	=3	=3	=3	=3	=3	=3	=3	=3	=3
8G\L	x n	8bn\L	8dd\L	.	.	.	2.ryy	.	.	.	.
8c\	.	8ee-\	16ee-\L	.	.	.	.	.	.	.	.
.	.	.	16ff\JJ	.	.	.	.	.	.	.	.
8c\	.	8ee-\	8gg\L	.	.	.	.	.	.	.	.
8c\	.	8ee-\	8gg\	.	.	.	.	.	.	.	.
8c\	.	8ee-\	8gg\	.	.	.	.	.	.	.	.
8c\J	.	8ee-\J	8gg\J	.	.	.	.	.	.	.	.
=4	=4	=4	=4	=4	=4	=4	=4	=4	=4	=4	=4
8Bn\L	x 6	8dd\L	8gg\L	.	.	.	2.ryy	.	.	.	.
8d\	.	8bn\	8ff\	.	.	.	.	.	.	.	.
8d\	.	8b\	8ff\	.	.	.	.	.	.	.	.
8d\	.	8b\	8ff\	.	.	.	.	.	.	.	.
8d\	.	8b\	8ff\	.	.	.	.	.	.	.	.
8d\J	.	8b\J	8ff\J	.	.	.	.	.	.	.	.
=5	=5	=5	=5	=5	=5	=5	=5	=5	=5	=5	=5
4c\	.	4cc\	4ee-\	1.r	.	.	2.ryy	0.r	0.r	0.r	0.r
8r	.	8r	8r	.	.	.	.	.	.	.	.
8Bn\	x 6	8g/	8dd\	.	.	.	.	.	.	.	.
8c\L	.	4cc\	4ee-\	.	.	.	.	.	.	.	.
8c\J	.	.	.	.	.	.	.	.	.	.	.
=6	=6	=6	=6	=6	=6	=6	=6	=6	=6	=6	=6
8r	.	8rdd	8r	.	.	.	2.ryy	.	.	.	.
8F\	x 6	8aa-X\	8ff\	.	.	.	.	.	.	.	.
4G\	6 4	4cc\	4ee-\	.	.	.	.	.	.	.	.
4GG/	5 3	8bn\L	8dd\L	.	.	.	.	.	.	.	.
.	.	8cc\J	8cc\J	.	.	.	.	.	.	.	.
=7	=7	=7	=7	=7	=7	=7	=7	=7	=7	=7	=7
!	!	!LO:LB:g=original	!	!	!	!	!	!	!	!	!
4C/	.	4cc\	4cc\	4r	.	.	2.ryy	.	.	.	.
4rBB	.	4rg	4rg	(8C\L	.	Be-	.	.	.	.	.
.	.	.	.	8E-\J)	.	.	.	.	.	.	.
4rBB	.	4rg	4rg	(8E-\L	.	-ne-	.	.	.	.	.
.	.	.	.	8G\J)	.	.	.	.	.	.	.
=8	=8	=8	=8	=8	=8	=8	=8	=8	=8	=8	=8
2.r	.	2.r	2.r	(8G\L	.	-di-	2.ryy	.	.	.	.
.	.	.	.	8c\J)	.	.	.	.	.	.	.
.	.	.	.	(8c\L	.	-ctus	.	.	.	.	.
.	.	.	.	8G\J)	.	.	.	.	.	.	.
.	.	.	.	(8G\L	.	qui	.	.	.	.	.
.	.	.	.	8E-\J)	.	.	.	.	.	.	.
=9	=9	=9	=9	=9	=9	=9	=9	=9	=9	=9	=9
!	!	!	!LO:LB:g=original	!	!	!	!	!	!	!	!
4c\	.	4cc\	4ee-\	4E-\	.	Ve-	2.ryy	0.r	0.r	0.r	0.r
8r	.	8r	8r	4C/	.	-nit	.	.	.	.	.
8Bn\	x 6	8g/	8dd\	.	.	.	.	.	.	.	.
4c\	.	4cc\	4ee-\	4r	.	.	.	.	.	.	.
=10	=10	=10	=10	=10	=10	=10	=10	=10	=10	=10	=10
!LO:LB:g=original	!	!	!	!	!	!	!	!	!	!	!
8r	.	8rdd	8r	2.r	.	.	2.ryy	.	.	.	.
8F\	x 6	8aa-X\	8ff\	.	.	.	.	.	.	.	.
4G\	6 4	4cc\	4ee-\	.	.	.	.	.	.	.	.
4GG/	x n	8bn\L	8dd\L	.	.	.	.	.	.	.	.
.	.	8cc\J	8cc\J	.	.	.	.	.	.	.	.
=11	=11	=11	=11	=11	=11	=11	=11	=11	=11	=11	=11
4C/	.	4cc\	4cc\	4r	.	.	2.ryy	.	.	.	.
4rBB	.	4rg	4rg	(8C\L	.	Be-	.	.	.	.	.
.	.	.	.	8E-\J)	.	.	.	.	.	.	.
4rBB	.	4rg	4rg	(8E-\L	.	-ne-	.	.	.	.	.
.	.	.	.	8G\J)	.	.	.	.	.	.	.
=12	=12	=12	=12	=12	=12	=12	=12	=12	=12	=12	=12
0.r	.	2.r	2.r	(8G\L	.	-di-	2.ryy	.	.	.	.
.	.	.	.	8c\J)	.	.	.	.	.	.	.
.	.	.	.	(8c\L	.	-ctus	.	.	.	.	.
.	.	.	.	8G\J)	.	.	.	.	.	.	.
.	.	.	.	(8G\L	.	qui	.	.	.	.	.
.	.	.	.	8E-\J)	.	.	.	.	.	.	.
=13	=13	=13	=13	=13	=13	=13	=13	=13	=13	=13	=13
!	!	!	!	!LO:LB:g=original	!	!	!	!	!	!	!
.	.	4r	4re	4E-\	.	ve-	2.ryy	0.r	0.r	0.r	0.r
.	.	8r	8re	4C/	.	-nit	.	.	.	.	.
.	.	8e-/L	8c/L	.	.	.	.	.	.	.	.
.	.	8e-/	8c/	4c\	.	Qui	.	.	.	.	.
.	.	8e-/J	8c/J	.	.	.	.	.	.	.	.
=14	=14	=14	=14	=14	=14	=14	=14	=14	=14	=14	=14
!	!	!	!	!LO:TX:t=P:problem=niejednoznaczny zapis ozdobnika [przyjęto mordent górny]	!	!	!	!	!	!	!
.	.	8f/L	8d/L	[<2.B-M\	.	Ve-	2.ryy	.	.	.	.
.	.	8f/	8d/	.	.	.	.	.	.	.	.
.	.	8f/	8d/	.	.	.	.	.	.	.	.
.	.	8f/	8d/	.	.	.	.	.	.	.	.
.	.	8f/	8d/	.	.	.	.	.	.	.	.
.	.	8f/J	8d/J	.	.	.	.	.	.	.	.
=15	=15	=15	=15	=15	=15	=15	=15	=15	=15	=15	=15
.	.	8g/L	8en/L	4B-\]	.	.	2.ryy	.	.	.	.
.	.	16en/L	16c/L	.	.	.	.	.	.	.	.
.	.	16f/JJ	16d/JJ	.	.	.	.	.	.	.	.
.	.	8g/L	8en/L	8c\L	.	.	.	.	.	.	.
.	.	8g/	8e/	8B-\	.	.	.	.	.	.	.
.	.	8g/	8e/	8c\	.	.	.	.	.	.	.
.	.	8c/J	8e/J	8G\J	.	.	.	.	.	.	.
=16	=16	=16	=16	=16	=16	=16	=16	=16	=16	=16	=16
!	!	!LO:LB:g=original	!	!	!	!	!	!	!	!	!
1.r	.	8c/L	8f/L	4A-\	.	-[[nit	2.ryy	.	.	.	.
.	.	8a-X/	8f/	.	.	.	.	.	.	.	.
.	.	8a-/	8f/	4F\	.	.	.	.	.	.	.
.	.	8a-/J	8f/J	.	.	.	.	.	.	.	.
.	.	8a-/L	8f/L	4A-\	.	qvi]]	.	.	.	.	.
.	.	16a-/L	16f/L	.	.	.	.	.	.	.	.
.	.	16g/JJ	16e-X/JJ	.	.	.	.	.	.	.	.
=17	=17	=17	=17	=17	=17	=17	=17	=17	=17	=17	=17
.	.	8f/L	8d/L	[<2.A-\	.	Ve-	2.ryy	0.r	0.r	0.r	0.r
.	.	16d/L	16B-/L	.	.	.	.	.	.	.	.
.	.	16e-/JJ	16c/JJ	.	.	.	.	.	.	.	.
.	.	8f/L	8d/L	.	.	.	.	.	.	.	.
.	.	8f/	8d/	.	.	.	.	.	.	.	.
.	.	8f/	8d/	.	.	.	.	.	.	.	.
.	.	8f/J	8d/J	.	.	.	.	.	.	.	.
=18	=18	=18	=18	=18	=18	=18	=18	=18	=18	=18	=18
!	!	!	!LO:LB:g=original	!	!	!	!	!	!	!	!
2.r	.	8f/L	8d/L	4A-\]	.	.	2.ryy	.	.	.	.
.	.	16d/L	16B-/L	.	.	.	.	.	.	.	.
.	.	16e-/JJ	16c/JJ	.	.	.	.	.	.	.	.
.	.	8f/L	8d/L	8B-\L	.	.	.	.	.	.	.
.	.	8f/	8d/	8A-\	.	.	.	.	.	.	.
.	.	8f/	8d/	8B-\	.	.	.	.	.	.	.
.	.	8B-/J	8d/J	8F\J	.	.	.	.	.	.	.
=19	=19	=19	=19	=19	=19	=19	=19	=19	=19	=19	=19
!	!	!	!LO:TX:t=P:problem=mixed beam	!	!	!	!	!	!	!	!
4r	.	4.B-/	8e-/L	4G\	.	.	2.ryy	.	.	.	.
.	.	.	8e-/	.	.	.	.	.	.	.	.
8r	.	.	8e-/	4E-\	.	-nit	.	.	.	.	.
8G\L	x n	8bn\L	8gg\	.	.	.	.	.	.	.	.
8G\	.	8b\	8gg\	4G\	.	qui	.	.	.	.	.
8G\J	.	8b\J	8gg\J	.	.	.	.	.	.	.	.
=20	=20	=20	=20	=20	=20	=20	=20	=20	=20	=20	=20
8An\L	x 6	8cc\L	(16ff\LL	2.An\	.	Ve-	2.ryy	.	.	.	.
.	.	.	16gg\)	.	.	.	.	.	.	.	.
8A\	x _	8cc\	(16ff\	.	.	.	.	.	.	.	.
.	.	.	16gg\JJ)	.	.	.	.	.	.	.	.
8A\	.	8cc\	(16ff\LL	.	.	.	.	.	.	.	.
.	.	.	16gg\)	.	.	.	.	.	.	.	.
8A\	.	8cc\	(16ff\	.	.	.	.	.	.	.	.
.	x x	.	16gg\JJ)	.	.	.	.	.	.	.	.
8A\	.	8cc\	(16ff\LL	.	.	.	.	.	.	.	.
.	.	.	16gg\)	.	.	.	.	.	.	.	.
8A\J	.	8cc\J	(16ff\	.	.	.	.	.	.	.	.
.	.	.	16gg\JJ)	.	.	.	.	.	.	.	.
=21	=21	=21	=21	=21	=21	=21	=21	=21	=21	=21	=21
8Bn\L	x 5	8dd\L	4.ff\	4Bn\	.	.	2.ryy	0.r	0.r	0.r	0.r
16G\L	x _	16bn\L	.	.	.	.	.	.	.	.	.
16An\JJ	.	16cc\JJ	.	.	.	.	.	.	.	.	.
8Bn\L	x x	8dd\L	.	8B\	.	-nit	.	.	.	.	.
8B\	x _	8dd\	8ff\L	8B\	.	in	.	.	.	.	.
8B\	.	8dd\	8ff\	4G\	.	No-	.	.	.	.	.
8B\J	x x	8dd\J	8ff\J	.	.	.	.	.	.	.	.
=22	=22	=22	=22	=22	=22	=22	=22	=22	=22	=22	=22
!LO:TX:t=P:problem=mixed beam	!	!	!	!LO:LB:g=original	!	!	!	!	!	!	!
8c\L	.	8cc\L	8ee-\L	8c\	.	-mi-	2.ryy	.	.	.	.
8F\	.	8dd\J	8ff\J	8F\	.	-ne	.	.	.	.	.
8G\	.	4g/	4.dd\	4.G\	.	Do-	.	.	.	.	.
8F\	.	.	.	.	.	.	.	.	.	.	.
8G\	x 4	4bn/	.	.	.	.	.	.	.	.	.
8GG/J	x n	.	8dd\	8GG/	.	-mi-	.	.	.	.	.
=23	=23	=23	=23	=23	=23	=23	=23	=23	=23	=23	=23
!	!	!LO:LB:g=original	!	!	!	!	!	!	!	!	!
!	!	!LO:TX:t=P:problem=mixed beam	!	!	!	!	!	!	!	!	!
8C/L	.	8cc\L	8cc\L	4C/	.	-ni	2.ryy	.	.	.	.
8C/	.	8e-/	8gg\J	.	.	.	.	.	.	.	.
8C/	.	8e-/	16gg\LL	4r	.	.	.	.	.	.	.
.	.	.	16ff\	.	.	.	.	.	.	.	.
8C/	.	8e-/	16ee-\	.	.	.	.	.	.	.	.
.	.	.	16dd\JJ	.	.	.	.	.	.	.	.
8C/	.	8e-/	8cc\L	4r	.	.	.	.	.	.	.
8C/J	.	8e-/J	8cc\J	.	.	.	.	.	.	.	.
=24	=24	=24	=24	=24	=24	=24	=24	=24	=24	=24	=24
!LO:TX:t=P:problem=kolejność znaków AA- BB- E-	!	!	!	!	!	!	!	!	!	!	!
!LO:LB:g=original	!	!	!	!	!	!	!	!	!	!	!
8D\L	x 6	8f/L	(16b-\LL	1.r	.	.	2.ryy	.	.	.	.
.	x _	.	16cc\)	.	.	.	.	.	.	.	.
8D\	.	8f/	(16b-\	.	.	.	.	.	.	.	.
.	.	.	16cc\JJ)	.	.	.	.	.	.	.	.
8D\	.	8f/	(16b-\LL	.	.	.	.	.	.	.	.
.	.	.	16cc\)	.	.	.	.	.	.	.	.
8D\	.	8f/	(16b-\	.	.	.	.	.	.	.	.
.	x x	.	16cc\JJ)	.	.	.	.	.	.	.	.
8D\	.	8f/	(16b-\LL	.	.	.	.	.	.	.	.
.	.	.	16cc\)	.	.	.	.	.	.	.	.
8D\J	.	8f/J	(16b-\	.	.	.	.	.	.	.	.
.	.	.	16cc\JJ)	.	.	.	.	.	.	.	.
=25	=25	=25	=25	=25	=25	=25	=25	=25	=25	=25	=25
!	!	!	!LO:LB:g=original	!	!	!	!	!	!	!	!
8D\L	x 5-r	8f/L	4.a-X/	.	.	.	2.ryy	0.r	0.r	0.r	0.r
8BB-\	.	16d/L	.	.	.	.	.	.	.	.	.
.	.	16e-/JJ	.	.	.	.	.	.	.	.	.
8D\	x _	8f/L	.	.	.	.	.	.	.	.	.
8D\	.	8f/	8a-/	.	.	.	.	.	.	.	.
8D\	x x	8f/	16a-/LL	.	.	.	.	.	.	.	.
.	.	.	16b-/	.	.	.	.	.	.	.	.
8D\J	.	8f/J	16a-/	.	.	.	.	.	.	.	.
.	.	.	16b-/JJ	.	.	.	.	.	.	.	.
=26	=26	=26	=26	=26	=26	=26	=26	=26	=26	=26	=26
4E-\	.	4e-/	4g/	4r	.	.	2.ryy	.	.	.	.
4rBB	.	4r	4rg	(8E-\L	.	Be-	.	.	.	.	.
.	.	.	.	8G\J)	.	.	.	.	.	.	.
4rBB	.	4r	4rg	(8G\L	.	-ne-	.	.	.	.	.
.	.	.	.	8B-\J)	.	.	.	.	.	.	.
=27	=27	=27	=27	=27	=27	=27	=27	=27	=27	=27	=27
4E-\	.	4g/	4b-/	(8B-\L	.	-di-	2.ryy	.	.	.	.
.	.	.	.	8e-\J)	.	.	.	.	.	.	.
4r	.	4rg	4r	(8e-\L	.	-ctus	.	.	.	.	.
.	.	.	.	8B-\J)	.	.	.	.	.	.	.
4r	.	4rg	4r	(8B-\L	.	qui	.	.	.	.	.
.	.	.	.	8G\J)	.	.	.	.	.	.	.
=28	=28	=28	=28	=28	=28	=28	=28	=28	=28	=28	=28
4E-\	.	4g/	4b-/	4G\	.	Ve-	2.ryy	.	.	.	.
8r	.	8r	8r	4E-\	.	-nit	.	.	.	.	.
8E-\L	x 6	8e-/L	8g/L	.	.	.	.	.	.	.	.
8D\	.	8f/	8f/	4B-\	.	qui	.	.	.	.	.
8D\J	.	8g/J	8b-/J	.	.	.	.	.	.	.	.
=29	=29	=29	=29	=29	=29	=29	=29	=29	=29	=29	=29
*	*	*	*	*	*below	*	*	*	*	*	*
!	!	!	!	!	!LO:DY:t=Forte	!	!	!	!	!	!
4C/	x 7	8e-/L	8e-/L	16B-\LL	f	Ve-	2.ryy	0.r	0.r	0.r	0.r
.	.	.	.	16c\	.	.	.	.	.	.	.
.	.	8c/	8e-/	16B-\	.	.	.	.	.	.	.
.	.	.	.	16c\JJ	.	.	.	.	.	.	.
!	!	!	!	!	!LO:DY:t=piano	!	!	!	!	!	!
4rBB	.	8c/	8e-/	16B-\LL	p	.	.	.	.	.	.
.	.	.	.	16c\	.	.	.	.	.	.	.
.	.	8c/	8e-/	16B-\	.	.	.	.	.	.	.
.	.	.	.	16c\JJ	.	.	.	.	.	.	.
!	!	!	!	!	!LO:DY:t=Forte	!	!	!	!	!	!
4rBB	.	8c/	8e-/	16B-\LL	f	.	.	.	.	.	.
.	.	.	.	16c\	.	.	.	.	.	.	.
.	.	8c/J	8e-/J	16B-\	.	.	.	.	.	.	.
.	.	.	.	16c\JJ	.	.	.	.	.	.	.
=30	=30	=30	=30	=30	=30	=30	=30	=30	=30	=30	=30
!	!	!	!	!LO:LB:g=original	!	!	!	!	!	!	!
4C/	.	8c/L	8e-/L	16A-\LL	.	.	2.ryy	.	.	.	.
.	.	.	.	16B-\	.	.	.	.	.	.	.
.	.	8c/	8e-/	16A-\	.	.	.	.	.	.	.
.	.	.	.	16B-\JJ	.	.	.	.	.	.	.
4rBB	.	8c/	8e-/	16A-\LL	.	.	.	.	.	.	.
.	.	.	.	16B-\	.	.	.	.	.	.	.
.	.	8c/	8e-/	16A-\	.	.	.	.	.	.	.
.	.	.	.	16B-\JJ	.	.	.	.	.	.	.
4rBB	.	8c/	8e-/	16A-\LL	.	.	.	.	.	.	.
.	.	.	.	16B-\	.	.	.	.	.	.	.
.	.	8c/J	8e-/J	16A-\	.	.	.	.	.	.	.
.	.	.	.	16B-\JJ	.	.	.	.	.	.	.
=31	=31	=31	=31	=31	=31	=31	=31	=31	=31	=31	=31
*	*	*	*	*Xtuplet	*	*	*	*	*	*	*
8D/LL	x 5-	4.d/	8f/L	4.A-\	.	.	2.ryy	.	.	.	.
16BB-/	.	.	16d/L	.	.	.	.	.	.	.	.
16C/J	.	.	16e-/JJ	.	.	.	.	.	.	.	.
!LO:TX:t=P:problem=niejednoznaczny zapis [bc lub 16]	!	!	!	!	!	!	!	!	!	!	!
!LO:N:vis=16	!	!	!	!	!	!	!	!	!	!	!
8D/L	.	.	8f/L	.	.	.	.	.	.	.	.
!LO:N:vis=16	!	!	!	!	!	!	!	!	!	!	!
8D/	.	8B-/L	8f/	24B-\LL	.	.	.	.	.	.	.
.	.	.	.	24A-\	.	.	.	.	.	.	.
.	.	.	.	24B-\JJ	.	.	.	.	.	.	.
!LO:N:vis=16	!	!	!	!	!	!	!	!	!	!	!
8D/	.	8B-/	8f/	16A-\LL	.	.	.	.	.	.	.
.	.	.	.	16B-\	.	.	.	.	.	.	.
8D/JJ	.	8B-/J	8f/J	16A-\	.	.	.	.	.	.	.
.	.	.	.	16B-\JJ	.	.	.	.	.	.	.
=32	=32	=32	=32	=32	=32	=32	=32	=32	=32	=32	=32
!	!	!LO:LB:g=original	!	!	!	!	!	!	!	!	!
4E-\	x 4	4B-/	8f/L	(8A-\L	.	.	2.ryy	.	.	.	.
.	x 3	.	8e-/J	8G\J)	.	.	.	.	.	.	.
8r	.	4re	4rg	8G\	.	-nit	.	.	.	.	.
8G\	.	.	.	8B-\	.	in	.	.	.	.	.
4A-\	.	4re	4rg	4c\	.	No-	.	.	.	.	.
=33	=33	=33	=33	=33	=33	=33	=33	=33	=33	=33	=33
!LO:TX:t=P:problem=mixed beam	!	!	!LO:TX:a:t=1	!	!	!	!	!	!	!	!
8G\L	x 6	1.r	2.r	8B-\	.	-mi-	2.ryy	0.r	0.r	0.r	0.r
8A-\	x 6	.	.	(16A-X\LL	.	-ne	.	.	.	.	.
.	.	.	.	16G\JJ)	.	.	.	.	.	.	.
8B-\	.	.	.	4.F\	.	Do-	.	.	.	.	.
8A-\	6 4	.	.	.	.	.	.	.	.	.	.
8B-\	5 3	.	.	.	.	.	.	.	.	.	.
8BB-/J	.	.	.	8F\	.	-mi-	.	.	.	.	.
=34	=34	=34	=34	=34	=34	=34	=34	=34	=34	=34	=34
!LO:LB:g=original	!	!	!LO:LB:g=original	!	!	!	!	!	!	!	!
4E-\	.	.	8re	4E-\	.	-ni	2.ryy	.	.	.	.
.	.	.	8B-/L	.	.	.	.	.	.	.	.
4rBB	.	.	8e-/	4rBB	.	.	.	.	.	.	.
.	.	.	8e-/	.	.	.	.	.	.	.	.
4rBB	.	.	8e-/	4rBB	.	.	.	.	.	.	.
.	.	.	8e-/J	.	.	.	.	.	.	.	.
=35	=35	=35	=35	=35	=35	=35	=35	=35	=35	=35	=35
2.r	.	8rg	8d/L	0.r	.	.	2.ryy	.	.	.	.
.	.	8B-/L	8f/	.	.	.	.	.	.	.	.
.	.	8e-/	8g/	.	.	.	.	.	.	.	.
.	.	8e-/	8g/	.	.	.	.	.	.	.	.
.	.	8e-/	8g/	.	.	.	.	.	.	.	.
.	.	8e-/J	8g/J	.	.	.	.	.	.	.	.
=36	=36	=36	=36	=36	=36	=36	=36	=36	=36	=36	=36
8r	.	8d/L	8f/L	.	.	.	2.ryy	.	.	.	.
8BB-\L	.	8g/	8b-/	.	.	.	.	.	.	.	.
8E-\	.	8g/	8b-/	.	.	.	.	.	.	.	.
8E-\	.	8g/	8b-/	.	.	.	.	.	.	.	.
8E-\	.	8g/	8b-/	.	.	.	.	.	.	.	.
8E-\J	.	8g/J	8b-/J	.	.	.	.	.	.	.	.
=37	=37	=37	=37	=37	=37	=37	=37	=37	=37	=37	=37
8D\L	x 6	8f/L	8b-/L	.	.	.	2.ryy	0.r	0.r	0.r	0.r
8F\	.	8f/	16f/L	.	.	.	.	.	.	.	.
.	.	.	16g/JJ	.	.	.	.	.	.	.	.
8F\	.	8f/	8a-X/L	.	.	.	.	.	.	.	.
8F\	x 6	8f/	8a-/	.	.	.	.	.	.	.	.
8D\	x 7	8f/	8a-/	.	.	.	.	.	.	.	.
8BB-\J	.	8f/J	8a-/J	.	.	.	.	.	.	.	.
=38	=38	=38	=38	=38	=38	=38	=38	=38	=38	=38	=38
4E-\	.	4e-/	4g/	.	.	.	2.ryy	.	.	.	.
8r	.	8rc	8r	.	.	.	.	.	.	.	.
8D\	.	8B-/	8f/	.	.	.	.	.	.	.	.
4E-\	.	4e-/	4g/	.	.	.	.	.	.	.	.
=39	=39	=39	=39	=39	=39	=39	=39	=39	=39	=39	=39
8r	.	8re	8r	2.r	.	.	2.ryy	.	.	.	.
8A-\	.	8e-/	8cc\	.	.	.	.	.	.	.	.
4B-\	6 4	4e-/	4g/	.	.	.	.	.	.	.	.
4BB-/	5 3	4d/	8f/L	.	.	.	.	.	.	.	.
.	.	.	8e-/J	.	.	.	.	.	.	.	.
=40	=40	=40	=40	=40	=40	=40	=40	=40	=40	=40	=40
!	!	!	!	!LO:LB:g=original	!	!	!	!	!	!	!
4E-\	.	4e-/	4e-/	8r	.	.	2.ryy	.	.	.	.
.	.	.	.	8G\	.	Qui	.	.	.	.	.
8r	.	4re	4rg	8c\L	.	Ve-	.	.	.	.	.
8En\L	x 6	.	.	8G\J	.	.	.	.	.	.	.
8E\	.	4re	4r	16c\LL	.	.	.	.	.	.	.
.	.	.	.	16B-\	.	.	.	.	.	.	.
8E\J	.	.	.	16c\	.	.	.	.	.	.	.
.	.	.	.	16G\JJ	.	.	.	.	.	.	.
=41	=41	=41	=41	=41	=41	=41	=41	=41	=41	=41	=41
4F\	.	0.r	0.r	8A-\L	.	.	2.ryy	0.r	0.r	0.r	0.r
.	.	.	.	8F\	.	.	.	.	.	.	.
8r	.	.	.	8D\	.	.	.	.	.	.	.
8D\L	x 6	.	.	8F\J	.	.	.	.	.	.	.
8D\	.	.	.	16B-\LL	.	.	.	.	.	.	.
.	.	.	.	16A-\	.	.	.	.	.	.	.
8D\J	.	.	.	16B-\	.	.	.	.	.	.	.
.	.	.	.	16F\JJ	.	.	.	.	.	.	.
=42	=42	=42	=42	=42	=42	=42	=42	=42	=42	=42	=42
4E-\	.	.	.	8G\L	.	.	2.ryy	.	.	.	.
.	.	.	.	8E-\	.	.	.	.	.	.	.
8r	.	.	.	8C\	.	.	.	.	.	.	.
8C/L	x 6	.	.	8G\J	.	.	.	.	.	.	.
8C/	.	.	.	16A-\LL	.	.	.	.	.	.	.
.	.	.	.	16G\	.	.	.	.	.	.	.
8C/J	.	.	.	16A-\	.	.	.	.	.	.	.
.	.	.	.	16E-\JJ	.	.	.	.	.	.	.
=43	=43	=43	=43	=43	=43	=43	=43	=43	=43	=43	=43
4D/	.	.	.	8F\L	.	.	2.ryy	.	.	.	.
.	.	.	.	8D\	.	.	.	.	.	.	.
8r	.	.	.	8BBn\	.	.	.	.	.	.	.
8BBn/L	x 6	.	.	8D\J	.	.	.	.	.	.	.
8BB/	.	.	.	16G\LL	.	.	.	.	.	.	.
.	.	.	.	16F\	.	.	.	.	.	.	.
8BB/J	.	.	.	16G\	.	.	.	.	.	.	.
.	.	.	.	16D\JJ	.	.	.	.	.	.	.
=44	=44	=44	=44	=44	=44	=44	=44	=44	=44	=44	=44
!LO:LB:g=original	!	!	!	!	!	!	!	!	!	!	!
8C\L	.	.	.	8E-\L	.	.	2.ryy	.	.	.	.
8D\	.	.	.	8D\J	.	.	.	.	.	.	.
8E-\	x 6\	.	.	8C/	.	-nit	.	.	.	.	.
8C\	x 6	.	.	8c\	.	in	.	.	.	.	.
8D\	.	.	.	4Bn\	.	No-	.	.	.	.	.
8G\J	x n	.	.	.	.	.	.	.	.	.	.
=45	=45	=45	=45	=45	=45	=45	=45	=45	=45	=45	=45
!LO:TX:t=P:problem=mixed beam	!	!	!	!LO:LB:g=original	!	!	!	!	!	!	!
8E-/L	x 6	1.r	2.r	8c\	.	-mi-	2.ryy	0.r	0.r	0.r	0.r
8F/	x 6	.	.	8D/	.	-ne	.	.	.	.	.
8G/	6 4	.	.	4E-\	.	Do-	.	.	.	.	.
8F/	5 3	.	.	.	.	.	.	.	.	.	.
8G/	.	.	.	8D/L	.	-mi-	.	.	.	.	.
8GG/J	.	.	.	8C/J	.	.	.	.	.	.	.
=46	=46	=46	=46	=46	=46	=46	=46	=46	=46	=46	=46
!	!	!	!LO:LB:g=original	!	!	!	!	!	!	!	!
4C/	.	.	8r	4C/	.	-ni.	2.ryy	.	.	.	.
.	.	.	8g\L	.	.	.	.	.	.	.	.
4rBB	.	.	8cc\	4rBB	.	.	.	.	.	.	.
.	.	.	8cc\	.	.	.	.	.	.	.	.
4rBB	.	.	8cc\	4rBB	.	.	.	.	.	.	.
.	.	.	8cc\J	.	.	.	.	.	.	.	.
=47	=47	=47	=47	=47	=47	=47	=47	=47	=47	=47	=47
2.r	.	8rg	8bn\L	0.r	.	.	2.ryy	.	.	.	.
.	.	8g\L	8ee-\	.	.	.	.	.	.	.	.
.	.	8cc\	8ee-\	.	.	.	.	.	.	.	.
.	.	8cc\	8ee-\	.	.	.	.	.	.	.	.
.	.	8cc\	8ee-\	.	.	.	.	.	.	.	.
.	.	8cc\J	8ee-\J	.	.	.	.	.	.	.	.
=48	=48	=48	=48	=48	=48	=48	=48	=48	=48	=48	=48
!	!	!LO:LB:g=original	!	!	!	!	!	!	!	!	!
8r	.	8bn\L	8dd\L	.	.	.	2.ryy	.	.	.	.
8G\L	.	8ee-\	8gg\	.	.	.	.	.	.	.	.
8c\	.	8ee-\	8gg\	.	.	.	.	.	.	.	.
8c\	.	8ee-\	8gg\	.	.	.	.	.	.	.	.
8c\	.	8ee-\	8gg\	.	.	.	.	.	.	.	.
8c\J	.	8ee-\J	8gg\J	.	.	.	.	.	.	.	.
=49	=49	=49	=49	=49	=49	=49	=49	=49	=49	=49	=49
8Bn\L	x 6	8dd\L	8gg\L	.	.	.	2.ryy	0.r	0.r	0.r	0.r
16d\L	.	8dd\	8ff\	.	.	.	.	.	.	.	.
16d\J	.	.	.	.	.	.	.	.	.	.	.
8d\	.	8dd\	8ff\	.	.	.	.	.	.	.	.
8B\	x 5	8dd\J	8ff\	.	.	.	.	.	.	.	.
8B\	.	16dd\LL	8ff\	.	.	.	.	.	.	.	.
.	.	16cc\	.	.	.	.	.	.	.	.	.
8G\J	7 n	16dd\	8ff\J	.	.	.	.	.	.	.	.
.	.	16bn\JJ	.	.	.	.	.	.	.	.	.
=50	=50	=50	=50	=50	=50	=50	=50	=50	=50	=50	=50
4c\	.	4cc\	4ee-\	.	.	.	2.ryy	.	.	.	.
8rF	.	8r	8r	.	.	.	.	.	.	.	.
8Bn\	x 6	8g/	8dd\	.	.	.	.	.	.	.	.
4c\	.	4cc\	4ee-\	.	.	.	.	.	.	.	.
=51	=51	=51	=51	=51	=51	=51	=51	=51	=51	=51	=51
8rF	.	8r	8r	1.r	.	.	2.ryy	.	.	.	.
8F\	.	8aa-\	8ff\	.	.	.	.	.	.	.	.
4G\	x 4	4cc\	4ee-\	.	.	.	.	.	.	.	.
!	!	!	!LO:TX:t=P:problem=niejednoznaczny zapis ozdobnika [przyjęto tryl]	!	!	!	!	!	!	!	!
4GG/	x n	8.bnt\L	8.ddt\L	.	.	.	.	.	.	.	.
.	.	16cc\Jk	16cc\Jk	.	.	.	.	.	.	.	.
=52	=52	=52	=52	=52	=52	=52	=52	=52	=52	=52	=52
2C/	.	2cc\	2.cc\	.	.	.	2.ryy	.	.	.	.
4r	.	4r	.	.	.	.	.	.	.	.	.
!LO:TX:a:t=Osanna\nVt Supra	!	!LO:TX:a:t=Osanna Vt Supra	!LO:TX:a:t=Osanna\nVt Supra	!LO:TX:a:t=Osanna Vt Supra	!	!	!LO:TX:a:t=Osanna\nVt Supra	!LO:TX:a:t=Osanna\nVt Supra	!LO:TX:a:t=Osanna Vt Supra	!LO:TX:a:t=Osanna\nVt Supra	!LO:TX:a:t=Osanna Vt Supra
!LO:TX:a:t=52	!	!LO:TX:a:t=52	!	!	!	!	!	!	!	!	!
==	==	==	==	==	==	==	==	==	==	==	==
*-	*-	*-	*-	*-	*-	*-	*-	*-	*-	*-	*-
!!!system-decoration: [(g1)][(g2)][(g3)]s9
!!!RDF**kern: | = vertical stroke
!!!RDF**kern: > = above
!!!RDF**kern: < = below
!!!ENC: Andrzej Kubiczek
!!!END: 2020-12-13
!!!ENC: Krzysztof Stępień
!!!END: 2022-03-24
!!!YEC: Copyright 2022 Narodowy Instytut Fryderyka Chopina (https://polishscores.org)
!!!YEM: License CC-BY-4.0 (https://creativecommons.org/licenses/by/4.0)
